Newaita-dark/actions/32/view-calendar-day.svg

<?xml version="1.0" encoding="UTF-8"?>
<svg xmlns="http://www.w3.org/2000/svg" xmlns:xlink="http://www.w3.org/1999/xlink" width="32pt" height="32pt" viewBox="0 0 32 32" version="1.1">
<defs>
<filter id="alpha" filterUnits="objectBoundingBox" x="0%" y="0%" width="100%" height="100%">
  <feColorMatrix type="matrix" in="SourceGraphic" values="0 0 0 0 1 0 0 0 0 1 0 0 0 0 1 0 0 0 1 0"/>
</filter>
<mask id="mask0">
  <g filter="url(#alpha)">
<rect x="0" y="0" width="32" height="32" style="fill:rgb(0%,0%,0%);fill-opacity:0.988235;stroke:none;"/>
  </g>
</mask>
<clipPath id="clip1">
  <rect x="0" y="0" width="32" height="32"/>
</clipPath>
<g id="surface5" clip-path="url(#clip1)">
<path style=" stroke:none;fill-rule:nonzero;fill:rgb(74.117649%,74.117649%,74.117649%);fill-opacity:1;" d="M 1.324219 8.1875 L 1.324219 28.035156 C 1.324219 29.5 2.503906 30.679688 3.96875 30.679688 L 27.785156 30.679688 C 29.25 30.679688 30.429688 29.5 30.429688 28.035156 L 30.429688 8.1875 L 28.445312 8.1875 L 28.445312 27.371094 C 28.445312 28.105469 27.855469 28.695312 27.121094 28.695312 L 4.628906 28.695312 C 3.898438 28.695312 3.308594 28.105469 3.308594 27.371094 L 3.308594 8.1875 Z M 1.324219 8.1875 "/>
</g>
<mask id="mask1">
  <g filter="url(#alpha)">
<rect x="0" y="0" width="32" height="32" style="fill:rgb(0%,0%,0%);fill-opacity:0.988235;stroke:none;"/>
  </g>
</mask>
<clipPath id="clip2">
  <rect x="0" y="0" width="32" height="32"/>
</clipPath>
<g id="surface8" clip-path="url(#clip2)">
<path style=" stroke:none;fill-rule:nonzero;fill:rgb(61.176473%,80.000001%,39.607844%);fill-opacity:1;" d="M 3.96875 1.574219 C 2.503906 1.574219 1.324219 2.753906 1.324219 4.21875 L 1.324219 8.1875 L 30.429688 8.1875 L 30.429688 4.21875 C 30.429688 2.753906 29.25 1.574219 27.785156 1.574219 Z M 5.953125 2.894531 C 7.054688 2.894531 7.9375 3.78125 7.9375 4.878906 C 7.9375 5.980469 7.054688 6.863281 5.953125 6.863281 C 4.855469 6.863281 3.96875 5.980469 3.96875 4.878906 C 3.96875 3.78125 4.855469 2.894531 5.953125 2.894531 Z M 25.800781 2.894531 C 26.898438 2.894531 27.785156 3.78125 27.785156 4.878906 C 27.785156 5.980469 26.898438 6.863281 25.800781 6.863281 C 24.699219 6.863281 23.816406 5.980469 23.816406 4.878906 C 23.816406 3.78125 24.699219 2.894531 25.800781 2.894531 Z M 25.800781 2.894531 "/>
</g>
</defs>
<g id="surface1">
<use xlink:href="#surface5" mask="url(#mask0)"/>
<use xlink:href="#surface8" mask="url(#mask1)"/>
<path style=" stroke:none;fill-rule:nonzero;fill:rgb(74.117649%,74.117649%,74.117649%);fill-opacity:1;" d="M 5.953125 10.835938 L 7.9375 10.835938 C 8.304688 10.835938 8.601562 11.128906 8.601562 11.496094 L 8.601562 13.480469 C 8.601562 13.847656 8.304688 14.140625 7.9375 14.140625 L 5.953125 14.140625 C 5.589844 14.140625 5.292969 13.847656 5.292969 13.480469 L 5.292969 11.496094 C 5.292969 11.128906 5.589844 10.835938 5.953125 10.835938 Z M 5.953125 10.835938 "/>
<path style=" stroke:none;fill-rule:nonzero;fill:rgb(74.117649%,74.117649%,74.117649%);fill-opacity:1;" d="M 11.90625 10.835938 L 13.890625 10.835938 C 14.257812 10.835938 14.554688 11.128906 14.554688 11.496094 L 14.554688 13.480469 C 14.554688 13.847656 14.257812 14.140625 13.890625 14.140625 L 11.90625 14.140625 C 11.542969 14.140625 11.246094 13.847656 11.246094 13.480469 L 11.246094 11.496094 C 11.246094 11.128906 11.542969 10.835938 11.90625 10.835938 Z M 11.90625 10.835938 "/>
<path style=" stroke:none;fill-rule:nonzero;fill:rgb(61.176473%,80.000001%,39.607844%);fill-opacity:1;" d="M 17.464844 10.171875 L 20.242188 10.171875 C 20.753906 10.171875 21.167969 10.585938 21.167969 11.097656 L 21.167969 13.878906 C 21.167969 14.390625 20.753906 14.804688 20.242188 14.804688 L 17.464844 14.804688 C 16.953125 14.804688 16.539062 14.390625 16.539062 13.878906 L 16.539062 11.097656 C 16.539062 10.585938 16.953125 10.171875 17.464844 10.171875 Z M 17.464844 10.171875 "/>
<path style=" stroke:none;fill-rule:nonzero;fill:rgb(74.117649%,74.117649%,74.117649%);fill-opacity:1;" d="M 23.816406 10.835938 L 25.800781 10.835938 C 26.164062 10.835938 26.460938 11.128906 26.460938 11.496094 L 26.460938 13.480469 C 26.460938 13.847656 26.164062 14.140625 25.800781 14.140625 L 23.816406 14.140625 C 23.449219 14.140625 23.152344 13.847656 23.152344 13.480469 L 23.152344 11.496094 C 23.152344 11.128906 23.449219 10.835938 23.816406 10.835938 Z M 23.816406 10.835938 "/>
<path style=" stroke:none;fill-rule:nonzero;fill:rgb(74.117649%,74.117649%,74.117649%);fill-opacity:1;" d="M 5.953125 16.789062 L 7.9375 16.789062 C 8.304688 16.789062 8.601562 17.085938 8.601562 17.449219 L 8.601562 19.433594 C 8.601562 19.800781 8.304688 20.09375 7.9375 20.09375 L 5.953125 20.09375 C 5.589844 20.09375 5.292969 19.800781 5.292969 19.433594 L 5.292969 17.449219 C 5.292969 17.085938 5.589844 16.789062 5.953125 16.789062 Z M 5.953125 16.789062 "/>
<path style=" stroke:none;fill-rule:nonzero;fill:rgb(74.117649%,74.117649%,74.117649%);fill-opacity:1;" d="M 11.90625 16.789062 L 13.890625 16.789062 C 14.257812 16.789062 14.554688 17.085938 14.554688 17.449219 L 14.554688 19.433594 C 14.554688 19.800781 14.257812 20.09375 13.890625 20.09375 L 11.90625 20.09375 C 11.542969 20.09375 11.246094 19.800781 11.246094 19.433594 L 11.246094 17.449219 C 11.246094 17.085938 11.542969 16.789062 11.90625 16.789062 Z M 11.90625 16.789062 "/>
<path style=" stroke:none;fill-rule:nonzero;fill:rgb(74.117649%,74.117649%,74.117649%);fill-opacity:1;" d="M 17.859375 16.789062 L 19.84375 16.789062 C 20.210938 16.789062 20.507812 17.085938 20.507812 17.449219 L 20.507812 19.433594 C 20.507812 19.800781 20.210938 20.09375 19.84375 20.09375 L 17.859375 20.09375 C 17.496094 20.09375 17.199219 19.800781 17.199219 19.433594 L 17.199219 17.449219 C 17.199219 17.085938 17.496094 16.789062 17.859375 16.789062 Z M 17.859375 16.789062 "/>
<path style=" stroke:none;fill-rule:nonzero;fill:rgb(74.117649%,74.117649%,74.117649%);fill-opacity:1;" d="M 23.816406 16.789062 L 25.800781 16.789062 C 26.164062 16.789062 26.460938 17.085938 26.460938 17.449219 L 26.460938 19.433594 C 26.460938 19.800781 26.164062 20.09375 25.800781 20.09375 L 23.816406 20.09375 C 23.449219 20.09375 23.152344 19.800781 23.152344 19.433594 L 23.152344 17.449219 C 23.152344 17.085938 23.449219 16.789062 23.816406 16.789062 Z M 23.816406 16.789062 "/>
<path style=" stroke:none;fill-rule:nonzero;fill:rgb(74.117649%,74.117649%,74.117649%);fill-opacity:1;" d="M 5.953125 22.742188 L 7.9375 22.742188 C 8.304688 22.742188 8.601562 23.039062 8.601562 23.402344 L 8.601562 25.386719 C 8.601562 25.753906 8.304688 26.050781 7.9375 26.050781 L 5.953125 26.050781 C 5.589844 26.050781 5.292969 25.753906 5.292969 25.386719 L 5.292969 23.402344 C 5.292969 23.039062 5.589844 22.742188 5.953125 22.742188 Z M 5.953125 22.742188 "/>
<path style=" stroke:none;fill-rule:nonzero;fill:rgb(74.117649%,74.117649%,74.117649%);fill-opacity:1;" d="M 11.90625 22.742188 L 13.890625 22.742188 C 14.257812 22.742188 14.554688 23.039062 14.554688 23.402344 L 14.554688 25.386719 C 14.554688 25.753906 14.257812 26.050781 13.890625 26.050781 L 11.90625 26.050781 C 11.542969 26.050781 11.246094 25.753906 11.246094 25.386719 L 11.246094 23.402344 C 11.246094 23.039062 11.542969 22.742188 11.90625 22.742188 Z M 11.90625 22.742188 "/>
<path style=" stroke:none;fill-rule:nonzero;fill:rgb(74.117649%,74.117649%,74.117649%);fill-opacity:1;" d="M 17.859375 22.742188 L 19.84375 22.742188 C 20.210938 22.742188 20.507812 23.039062 20.507812 23.402344 L 20.507812 25.386719 C 20.507812 25.753906 20.210938 26.050781 19.84375 26.050781 L 17.859375 26.050781 C 17.496094 26.050781 17.199219 25.753906 17.199219 25.386719 L 17.199219 23.402344 C 17.199219 23.039062 17.496094 22.742188 17.859375 22.742188 Z M 17.859375 22.742188 "/>
<path style=" stroke:none;fill-rule:nonzero;fill:rgb(74.117649%,74.117649%,74.117649%);fill-opacity:1;" d="M 23.816406 22.742188 L 25.800781 22.742188 C 26.164062 22.742188 26.460938 23.039062 26.460938 23.402344 L 26.460938 25.386719 C 26.460938 25.753906 26.164062 26.050781 25.800781 26.050781 L 23.816406 26.050781 C 23.449219 26.050781 23.152344 25.753906 23.152344 25.386719 L 23.152344 23.402344 C 23.152344 23.039062 23.449219 22.742188 23.816406 22.742188 Z M 23.816406 22.742188 "/>
</g>
</svg>

<svg xmlns="http://www.w3.org/2000/svg" xmlns:xlink="http://www.w3.org/1999/xlink" width="32pt" height="32pt" viewBox="0 0 32 32"><defs><filter id="a" filterUnits="objectBoundingBox" x="0%" y="0%" width="100%" height="100%"><feColorMatrix in="SourceGraphic" values="0 0 0 0 1 0 0 0 0 1 0 0 0 0 1 0 0 0 1 0"/></filter><mask id="e"><path fill-opacity=".988" d="M0 0h32v32H0z" filter="url(#a)"/></mask><clipPath id="b"><path d="M0 0h32v32H0z"/></clipPath><g id="d" clip-path="url(#b)"><path d="M1.324 8.188v19.847A2.639 2.639 0 0 0 3.97 30.68h23.816a2.639 2.639 0 0 0 2.645-2.645V8.187h-1.985v19.184a1.32 1.32 0 0 1-1.324 1.324H4.63c-.73 0-1.32-.59-1.32-1.324V8.188zm0 0" fill="#bdbdbd"/></g><mask id="g"><path fill-opacity=".988" d="M0 0h32v32H0z" filter="url(#a)"/></mask><clipPath id="c"><path d="M0 0h32v32H0z"/></clipPath><g id="f" clip-path="url(#c)"><path d="M3.969 1.574A2.639 2.639 0 0 0 1.324 4.22v3.968H30.43V4.22a2.639 2.639 0 0 0-2.645-2.645zm1.984 1.32A1.98 1.98 0 0 1 7.937 4.88a1.977 1.977 0 0 1-1.984 1.984A1.98 1.98 0 0 1 3.97 4.88c0-1.098.886-1.984 1.984-1.984zm19.848 0c1.097 0 1.984.887 1.984 1.985a1.98 1.98 0 0 1-1.984 1.984 1.977 1.977 0 0 1-1.985-1.984 1.98 1.98 0 0 1 1.985-1.984zm0 0" fill="#9ccc65"/></g></defs><use xlink:href="#d" mask="url(#e)"/><use xlink:href="#f" mask="url(#g)"/><path d="M5.953 10.836h1.984a.66.66 0 0 1 .665.66v1.984a.66.66 0 0 1-.665.66H5.954a.66.66 0 0 1-.66-.66v-1.984a.66.66 0 0 1 .66-.66zm0 0M11.906 10.836h1.985a.66.66 0 0 1 .664.66v1.984a.66.66 0 0 1-.664.66h-1.985a.66.66 0 0 1-.66-.66v-1.984a.66.66 0 0 1 .66-.66zm0 0" fill="#bdbdbd"/><path d="M17.465 10.172h2.777c.512 0 .926.414.926.926v2.78a.925.925 0 0 1-.926.927h-2.777a.925.925 0 0 1-.926-.926v-2.781c0-.512.414-.926.926-.926zm0 0" fill="#9ccc65"/><path d="M23.816 10.836h1.985a.66.66 0 0 1 .66.66v1.984a.66.66 0 0 1-.66.66h-1.985a.66.66 0 0 1-.664-.66v-1.984a.66.66 0 0 1 .664-.66zm0 0M5.953 16.79h1.984c.368 0 .665.296.665.66v1.984a.66.66 0 0 1-.665.66H5.954a.66.66 0 0 1-.66-.66v-1.985c0-.363.297-.66.66-.66zm0 0M11.906 16.79h1.985c.367 0 .664.296.664.66v1.984a.66.66 0 0 1-.664.66h-1.985a.66.66 0 0 1-.66-.66v-1.985c0-.363.297-.66.66-.66zm0 0M17.86 16.79h1.984c.367 0 .664.296.664.66v1.984a.66.66 0 0 1-.664.66h-1.985a.66.66 0 0 1-.66-.66v-1.985c0-.363.297-.66.66-.66zm0 0M23.816 16.79h1.985c.363 0 .66.296.66.66v1.984a.66.66 0 0 1-.66.66h-1.985a.66.66 0 0 1-.664-.66v-1.985c0-.363.297-.66.664-.66zm0 0M5.953 22.742h1.984c.368 0 .665.297.665.66v1.985a.664.664 0 0 1-.665.664H5.954a.663.663 0 0 1-.66-.664v-1.985c0-.363.297-.66.66-.66zm0 0M11.906 22.742h1.985c.367 0 .664.297.664.66v1.985a.664.664 0 0 1-.664.664h-1.985a.663.663 0 0 1-.66-.664v-1.985c0-.363.297-.66.66-.66zm0 0M17.86 22.742h1.984c.367 0 .664.297.664.66v1.985a.664.664 0 0 1-.664.664h-1.985a.663.663 0 0 1-.66-.664v-1.985c0-.363.297-.66.66-.66zm0 0M23.816 22.742h1.985c.363 0 .66.297.66.66v1.985a.663.663 0 0 1-.66.664h-1.985a.664.664 0 0 1-.664-.664v-1.985c0-.363.297-.66.664-.66zm0 0" fill="#bdbdbd"/></svg>
